X:173
U: ~ = !turn!
%%topmargin 3cm
T:Reel of Rio
B:Traditional Irish Fiddle Tunes. Randy Miller and Jack Perron.
Z:Transcribed by Ralph Palmer
R:Reel
M:C|
L:1/8
K:G
DEGA BABd | eg (3{/a}(gfg) agea | gede gedB | ((3cBA) ((3cBA) GE (3{/F}(EDE) |
DEGA {Bc}BABd | eg (3{/a}(gfg) agea | gfaf gedB | AGBA G2 z2 ::
dg (3{/a}(gfg) ag (3{/a}(gfg) | bg (3{/a}(gfg) edBd | eB (3.B.B.B {/c}BABd | gedB AE (3{/G}(EDE)|
DEGA {Bc}BABd | eg (3.g.g.g agea | gbaf gedB | AGBA G2 z2 :|]
